X:1107
T:The Moudiewort
P:The Moudiewort
C:Oswald's Caledonian Pocket Companion 1752
R:Jig (8x32)
B:RSCDS 11-7
Z:Anselm Lingnau <anselm@strathspey.org>
M:6/8
L:1/8
K:G
|:g|"G"dBG ABd|"Am"e2A A2 g|"G"dBG ABd|"Am"e2 E E2 g|
    "G"dBG "D7"ABc|"G"BAB "Em"GAB|"Am"cBA "B7"dcB|"Em"e2E E2:|
|:f|"Em"gag gfe|"D"aba agf|"Em"gfg "D"aga|"B7"b2B B2 f|
    "Em"gag gfe|"D"aba agf|"Em"bag "B7"agf|"Em"e2E E2:|
